images/voice-call.svg

<?xml version="1.0" encoding="UTF-8"?>
<svg xmlns="http://www.w3.org/2000/svg" xmlns:xlink="http://www.w3.org/1999/xlink" width="128px" height="128px" viewBox="0 0 128 128" version="1.1">
  <title>编组 3</title>
  <g id="当前版" stroke="none" stroke-width="1" fill="none" fill-rule="evenodd">
    <g id="更多" transform="translate(-47.000000, -1355.000000)">
      <g id="编组-7" transform="translate(47.000000, 1147.000000)">
        <g id="编组-3" transform="translate(0.000000, 208.000000)">
          <rect id="矩形备份-43" fill="#FFFFFF" x="0" y="0" width="128" height="128" rx="20"></rect>
          <path d="M64.2515723,36 C69.6355149,36 74,40.6354433 74,46.3536346 L74,59.7131631 C73.9654088,65.4051572 69.6110456,70 64.2515723,70 L63.7484277,70 C58.3644851,70 54,65.3644524 54,59.6463654 L54,46.2868369 C54.0345912,40.5947385 58.3889544,36 63.7484277,36 L64.2515723,36 Z M62,78 L66,78 L66,90 L62,90 L62,78 Z M53.2380952,86 L74.7619048,86 C75.4456859,86 76,86.5543141 76,87.2380952 L76,88.7619048 C76,89.4456859 75.4456859,90 74.7619048,90 L53.2380952,90 C52.5543141,90 52,89.4456859 52,88.7619048 L52,87.2380952 C52,86.5543141 52.5543141,86 53.2380952,86 Z M47.7494824,58 C48.1927879,58 48.5586146,58.3317262 48.6122725,58.7604888 L48.6190476,58.8695652 C48.6190476,67.5334064 55.5266818,74.5217391 64,74.5217391 C72.3770305,74.5217391 79.2237585,67.6913297 79.3782842,59.1642666 L79.3809524,58.8695652 C79.3809524,58.3893176 79.77027,58 80.2505176,58 L82.1304348,58 C82.5737403,58 82.9395669,58.3317262 82.9932249,58.7604888 L83,58.8695652 C83,69.4156284 74.5147575,78 64,78 C53.5903901,78 45.1699078,69.5864574 45.0025391,59.185352 L45,58.8695652 C45,58.3893176 45.3893176,58 45.8695652,58 L47.7494824,58 Z" id="形状结合" fill="#5C6168" fill-rule="nonzero"></path>
        </g>
      </g>
    </g>
  </g>
</svg>

<?xml version="1.0" encoding="UTF-8"?>
<svg id="_图层_1" data-name="图层_1" xmlns="http://www.w3.org/2000/svg" version="1.1" viewBox="0 0 128 128">
  <!-- Generator: Adobe Illustrator 29.1.0, SVG Export Plug-In . SVG Version: 2.1.0 Build 142)  -->
  <defs>
    <style>
      .st0 {
        fill: #bcbcbc;
      }
    </style>
  </defs>
  <path id="_形状结合" data-name="形状结合" class="st0" d="M64.3,36c5.4,0,9.7,4.6,9.7,10.4v13.4c0,5.7-4.4,10.3-9.7,10.3h-.5c-5.4,0-9.7-4.6-9.7-10.4v-13.4c0-5.7,4.4-10.3,9.7-10.3h.5ZM62,78h4v12h-4v-12ZM53.2,86h21.5c.7,0,1.2.6,1.2,1.2v1.5c0,.7-.6,1.2-1.2,1.2h-21.5c-.7,0-1.2-.6-1.2-1.2v-1.5c0-.7.6-1.2,1.2-1.2ZM47.7,58c.4,0,.8.3.9.8h0c0,8.8,6.9,15.8,15.4,15.8s15.2-6.8,15.4-15.4v-.3c0-.5.4-.9.9-.9h1.9c.4,0,.8.3.9.8h0c0,10.7-8.5,19.2-19,19.2s-18.8-8.4-19-18.8v-.3c0-.5.4-.9.9-.9h1.9Z"/>
</svg>
